svg/other/prescription_line.svg

<svg xmlns="http://www.w3.org/2000/svg" width="24" height="24" viewBox="0 0 24 24"><g fill="none" fill-rule="evenodd"><path d="M24,0 L24,24 L0,24 L0,0 L24,0 Z M12.5935,23.2578 L12.5819,23.2595 L12.5109,23.295 L12.4919,23.2987 L12.4767,23.295 L12.4057,23.2595 C12.3958,23.2564 12.387,23.259 12.3821,23.2649 L12.378,23.2758 L12.3609,23.7031 L12.3659,23.7235 L12.3769,23.7357 L12.4805,23.8097 L12.4953,23.8136 L12.5071,23.8097 L12.6107,23.7357 L12.6233,23.7197 L12.6267,23.7031 L12.6096,23.2758 C12.6076,23.2657 12.601,23.2593 12.5935,23.2578 Z M12.8584,23.1453 L12.8445,23.1473 L12.6598,23.2397 L12.6499,23.2499 L12.6472,23.2611 L12.6651,23.6906 L12.6699,23.7034 L12.6784,23.7105 L12.8793,23.8032 C12.8914,23.8069 12.9022,23.803 12.9078,23.7952 L12.9118,23.7812 L12.8777,23.1665 C12.8753,23.1546 12.8674,23.147 12.8584,23.1453 Z M12.143,23.1473 C12.1332,23.1424 12.1222,23.1453 12.1156,23.1526 L12.1099,23.1665 L12.0758,23.7812 C12.0751,23.7927 12.0828,23.8019 12.0926,23.8046 L12.1083,23.8032 L12.3092,23.7105 L12.3186,23.7024 L12.3225,23.6906 L12.3404,23.2611 L12.3372,23.2485 L12.3278,23.2397 L12.143,23.1473 Z"/><path fill="#09244B" d="M5,5 C5,3.89543 5.89543,3 7,3 L11.5,3 C13.9853,3 16,5.01472 16,7.5 C16,9.98528 13.9853,12 11.5,12 L11.4142,12 L15,15.5858 L17.2929,13.2929 C17.6834,12.9024 18.3166,12.9024 18.7071,13.2929 C19.0976,13.6834 19.0976,14.3166 18.7071,14.7071 L16.4142,17 L18.7071,19.2929 C19.0976,19.6834 19.0976,20.3166 18.7071,20.7071 C18.3166,21.0976 17.6834,21.0976 17.2929,20.7071 L15,18.4142 L12.7071,20.7071 C12.3166,21.0976 11.6834,21.0976 11.2929,20.7071 C10.9024,20.3166 10.9024,19.6834 11.2929,19.2929 L13.5858,17 L8.58579,12 L7,12 L7,17 C7,17.5523 6.55228,18 6,18 C5.44772,18 5,17.5523 5,17 L5,5 Z M7,10 L11.5,10 C12.8807,10 14,8.88071 14,7.5 C14,6.11929 12.8807,5 11.5,5 L7,5 L7,10 Z"/></g></svg>

<svg xmlns="http://www.w3.org/2000/svg" width="24" height="24"><g fill="none" fill-rule="evenodd"><path d="M24 0v24H0V0zM12.594 23.258l-.012.002-.071.035-.02.004-.014-.004-.071-.036c-.01-.003-.019 0-.024.006l-.004.01-.017.428.005.02.01.013.104.074.015.004.012-.004.104-.074.012-.016.004-.017-.017-.427c-.002-.01-.009-.017-.016-.018m.264-.113-.014.002-.184.093-.01.01-.003.011.018.43.005.012.008.008.201.092c.012.004.023 0 .029-.008l.004-.014-.034-.614c-.003-.012-.01-.02-.02-.022m-.715.002a.023.023 0 0 0-.027.006l-.006.014-.034.614c0 .012.007.02.017.024l.015-.002.201-.093.01-.008.003-.011.018-.43-.003-.012-.01-.01z"/><path fill="#09244B" d="M5 5a2 2 0 0 1 2-2h4.5a4.5 4.5 0 1 1 0 9h-.086L15 15.586l2.293-2.293a1 1 0 0 1 1.414 1.414L16.414 17l2.293 2.293a1 1 0 0 1-1.414 1.414L15 18.414l-2.293 2.293a1 1 0 0 1-1.414-1.414L13.586 17l-5-5H7v5a1 1 0 1 1-2 0zm2 5h4.5a2.5 2.5 0 0 0 0-5H7z"/></g></svg>
